packages/icons/src/SVG/volume-off.svg

<svg width="12" height="12" viewBox="0 0 12 12" >
<path d="M0 4H3L6 1V11L3 8H0V4Z" />
<path d="M11.2857 8.5L9.5 6.71429L7.71429 8.5L7 7.78571L8.78571 6L7 4.21429L7.71429 3.5L9.5 5.28571L11.2857 3.5L12 4.21429L10.2143 6L12 7.78571L11.2857 8.5Z" />
</svg>

<!-- Generated by IcoMoon.io -->
<svg version="1.1" xmlns="http://www.w3.org/2000/svg" width="12" height="12" viewBox="0 0 12 12">
<title>volume-off</title>
<path fill="#4c505b" d="M0 4h3l3-3v10l-3-3h-3v-4z"></path>
<path fill="#4c505b" d="M11.286 8.5l-1.786-1.786-1.786 1.786-0.714-0.714 1.786-1.786-1.786-1.786 0.714-0.714 1.786 1.786 1.786-1.786 0.714 0.714-1.786 1.786 1.786 1.786-0.714 0.714z"></path>
</svg>
